flaticon/interaction/list-8.svg

<svg xmlns="http://www.w3.org/2000/svg" width="32" height="32" viewBox="0 0 24 24">
    <path d="M23.464844 23.289062L20.953125 20.660156C21.6875 19.851562 22.140625 18.78125 22.140625 17.605469 22.140625 15.101562 20.101562 13.0625 17.59375 13.0625 15.089844 13.0625 13.050781 15.101562 13.050781 17.605469 13.050781 20.113281 15.089844 22.152344 17.59375 22.152344 18.621094 22.152344 19.570312 21.804688 20.332031 21.226562L22.859375 23.871094C22.941406 23.957031 23.050781 24 23.160156 24 23.265625 24 23.371094 23.960938 23.453125 23.882812 23.621094 23.722656 23.625 23.457031 23.464844 23.289062zM13.890625 17.605469C13.890625 15.5625 15.550781 13.902344 17.59375 13.902344 19.636719 13.902344 21.296875 15.5625 21.296875 17.605469 21.296875 19.648438 19.636719 21.308594 17.59375 21.308594 15.550781 21.308594 13.890625 19.648438 13.890625 17.605469zM11.785156 5.050781C11.554688 5.050781 11.363281 5.242188 11.363281 5.472656 11.363281 5.707031 11.554688 5.894531 11.785156 5.894531L19.363281 5.894531C19.597656 5.894531 19.785156 5.707031 19.785156 5.472656 19.785156 5.242188 19.597656 5.050781 19.363281 5.050781zM19.785156 11.367188C19.785156 11.136719 19.597656 10.949219 19.363281 10.949219L11.785156 10.949219C11.554688 10.949219 11.363281 11.136719 11.363281 11.367188 11.363281 11.601562 11.554688 11.789062 11.785156 11.789062L19.363281 11.789062C19.597656 11.789062 19.785156 11.601562 19.785156 11.367188zM9.082031 3.050781C8.90625 2.898438 8.640625 2.917969 8.488281 3.09375L5.859375 6.164062 4.25 4.957031C4.0625 4.816406 3.800781 4.855469 3.660156 5.039062 3.519531 5.226562 3.558594 5.488281 3.742188 5.628906L5.667969 7.074219C5.742188 7.128906 5.832031 7.15625 5.921875 7.15625 6.039062 7.15625 6.15625 7.105469 6.242188 7.011719L9.128906 3.640625C9.28125 3.464844 9.257812 3.199219 9.082031 3.050781zM9.082031 8.945312C8.90625 8.792969 8.640625 8.8125 8.488281 8.988281L5.859375 12.058594 4.25 10.851562C4.0625 10.710938 3.800781 10.75 3.660156 10.933594 3.519531 11.121094 3.558594 11.386719 3.742188 11.523438L5.667969 12.96875C5.742188 13.023438 5.832031 13.050781 5.921875 13.050781 6.039062 13.050781 6.15625 13.003906 6.242188 12.90625L9.128906 9.535156C9.28125 9.359375 9.257812 9.09375 9.082031 8.945312zM8.488281 15.304688L5.859375 18.375 4.25 17.167969C4.0625 17.027344 3.800781 17.0625 3.660156 17.25 3.519531 17.4375 3.558594 17.699219 3.742188 17.839844L5.667969 19.285156C5.742188 19.339844 5.832031 19.367188 5.921875 19.367188 6.039062 19.367188 6.15625 19.316406 6.242188 19.21875L9.128906 15.851562C9.28125 15.675781 9.257812 15.410156 9.082031 15.257812 8.90625 15.109375 8.640625 15.128906 8.488281 15.304688zM8.488281 15.304688"/>
    <path d="M 11.363281 21.894531 L 5.542969 21.894531 C 3.179688 21.894531 1.257812 19.972656 1.257812 17.609375 L 1.257812 5.125 C 1.257812 2.765625 3.179688 0.84375 5.542969 0.84375 L 18.027344 0.84375 C 20.390625 0.84375 22.3125 2.765625 22.3125 5.125 L 22.3125 13.894531 C 22.3125 14.128906 22.5 14.316406 22.734375 14.316406 C 22.964844 14.316406 23.152344 14.128906 23.152344 13.894531 L 23.152344 5.125 C 23.152344 2.300781 20.855469 0 18.027344 0 L 5.542969 0 C 2.71875 0 0.417969 2.300781 0.417969 5.125 L 0.417969 17.609375 C 0.417969 20.4375 2.71875 22.738281 5.542969 22.738281 L 11.363281 22.738281 C 11.597656 22.738281 11.785156 22.546875 11.785156 22.316406 C 11.785156 22.082031 11.597656 21.894531 11.363281 21.894531 Z M 11.363281 21.894531"/>
</svg>

<svg xmlns="http://www.w3.org/2000/svg" width="32" height="32" viewBox="0 0 24 24">
    <path d="M23.465 23.29l-2.512-2.63a4.532 4.532 0 0 0 1.188-3.055 4.55 4.55 0 0 0-4.547-4.543 4.55 4.55 0 0 0-4.543 4.543 4.55 4.55 0 0 0 4.543 4.547 4.519 4.519 0 0 0 2.738-.925l2.527 2.644a.414.414 0 0 0 .301.129.42.42 0 0 0 .305-.71zm-9.574-5.685a3.706 3.706 0 0 1 3.703-3.703 3.706 3.706 0 0 1 3.703 3.703 3.706 3.706 0 0 1-3.703 3.704 3.706 3.706 0 0 1-3.703-3.704zm0 0M11.785 5.05a.423.423 0 0 0 0 .844h7.578a.423.423 0 0 0 0-.844zm0 0M19.785 11.367a.42.42 0 0 0-.422-.418h-7.578a.422.422 0 0 0-.422.418c0 .235.192.422.422.422h7.578a.42.42 0 0 0 .422-.422zm0 0M9.082 3.05a.42.42 0 0 0-.594.044L5.86 6.164 4.25 4.957a.422.422 0 0 0-.59.082.422.422 0 0 0 .082.59l1.926 1.445a.428.428 0 0 0 .574-.062L9.13 3.64a.416.416 0 0 0-.047-.59zm0 0M9.082 8.945a.42.42 0 0 0-.594.043l-2.629 3.07-1.609-1.206a.422.422 0 0 0-.508.672l1.926 1.445a.428.428 0 0 0 .574-.063l2.887-3.37a.416.416 0 0 0-.047-.59zm0 0M8.488 15.305l-2.629 3.07-1.609-1.207a.419.419 0 0 0-.59.082.422.422 0 0 0 .082.59l1.926 1.445a.428.428 0 0 0 .574-.066l2.887-3.367a.421.421 0 1 0-.64-.547zm0 0"/>
    <path d="M11.363 21.895h-5.82a4.29 4.29 0 0 1-4.285-4.286V5.125A4.289 4.289 0 0 1 5.543.844h12.484a4.289 4.289 0 0 1 4.285 4.281v8.77a.42.42 0 1 0 .84 0v-8.77A5.13 5.13 0 0 0 18.027 0H5.543A5.133 5.133 0 0 0 .418 5.125v12.484c0 2.828 2.3 5.13 5.125 5.13h5.82a.423.423 0 0 0 0-.844zm0 0"/>
</svg>
